X: 7
T: Tha Mi Sgith
R: strathspey
M: 4/4
L: 1/8
K: Edor
|: ^D/ |~E2 e2 d<B d2 | B>AF>E D>EF<D |\
(3EEE e2 d<B d2 | B>AF<d E2 E3/ :|
|: _B/ |B>AF>E D>EF<D | B>AF<E F2 d2 |\
B>AF>E D>EF<A | B<Ad<F E2 E3/ :|


Tune 647	Setting 13675

